X:1
T:Title
%%score { ( 1 3 ) | 2 }
L:1/8
M:4/4
K:Bb
V:1 treble nm="Grand Piano"
V:3 treble 
V:2 bass 
V:1
 z4 z2[Q:1/4=100] [DB]>[Ec] | [Fd]>[Fd] [Fd]>[Fd] [Fd]2 [Ec]2 | [Ec]2 [DB]4 [FB]>[FA] | %3
 G>G G>G B2 G2 |[M:3/4] [EG]2 [DF]4 |[M:1/4] [DB]>[Ec] |[M:4/4] [Fd]>[Fd] [Fd]>[Fd] [Fd]2 [Fc]2 | %7
 [Gc]2 [GB]4 [FA]>G | z4 z2 c2 |[M:3/4] [DB]6 |[M:1/4] [DB]>[Ec] |[M:4/4] [Fd]6 z2 | [Ec]6 z2 | %13
 B>B G>B d<d B2 |[M:3/4] [^FA]2 [Fd]4 |[M:1/4] [Fd]>[Ec] |[M:4/4] [DB]6[K:bass][K:treble] z2 | %17
[M:9/8] .[EG]6 z3 |[M:4/4] z4 z2 c2 |[M:3/4] [DB]6 |] %20
V:2
 z4 z2 [B,,B,]>[B,,B,] | [B,,B,]>[B,,B,] [D,B,]>[D,B,] [F,B,]2 [F,A,]2 | %2
 [B,,B,]2 [B,,B,]4 [D,B,]>[D,B,] | [E,B,E]>[E,B,E] [E,B,E]>[E,B,E] [E,G,E]2 [E,B,E]2 | %4
[M:3/4] [B,,B,]2 [B,,B,]4 |[M:1/4] [B,,B,]>[B,,B,] | %6
[M:4/4] [B,,B,]>[B,,B,] [B,,B,]>[B,,B,] [B,,B,]2 [D,B,]2 | [E,B,]2 [E,B,]4 [E,B,]>[E,B,E] | %8
 [F,B,D]>[F,B,D] [F,A,D]>[F,B,D] [F,B,F]2 .[F,A,F]2 |[M:3/4] [B,,B,]6 |[M:1/4] [B,,B,]>[B,,B,] | %11
[M:4/4] [B,,B,]2 B,,>B,, B,,2 [B,,B,]>[B,,B,] | [F,A,]2 F,>F, F,2 [F,A,E]>[^F,A,E] | %13
 [G,B,D]>[G,DG] [G,B,D]>[G,DG] [G,B,G]<[G,B,G] [G,DG]2 |[M:3/4][K:bass] [D,D]2 [D,A,]4 | %15
[M:1/4] [F,A,]>[F,A,] |[M:4/4] [B,,B,]>B,, B,,>B,, B,,2 [D,B,]>D, | %17
[M:9/8] E,>E,E,- E,/E,/ [E,B,]2- [E,B,][E,B,]>[E,B,E] | %18
[M:4/4] [F,B,D]>[F,B,D] [F,A,E]>[F,B,D] [F,B,F]2 .[F,A,F]2 |[M:3/4] [B,,B,]6 |] %20
V:3
 x8 | x8 | x8 | x8 |[M:3/4] x6 |[M:1/4] x2 |[M:4/4] x8 | x8 | F>F G>F d2 z E |[M:3/4] x6 | %10
[M:1/4] x2 |[M:4/4] z2 B,>B, B,2 [Ge]>[Fd] | z2 A,>A, A,2 d>c | x8 |[M:3/4] x6 |[M:1/4] x2 | %16
[M:4/4] z z/[K:bass] F,/ F,>F, F,2[K:treble] [Fc]>[B,FB] | %17
[M:9/8] B,>B,B,- B,/B,/ [GB]2- [GB][FA]>G |[M:4/4] F>F G>F d2 z E |[M:3/4] x6 |] %20

